X: 1
T: Bill Malley's
R: barndance
M: 4/4
L: 1/8
K: Gmaj
      D2 | "G" G3A  B2 GB   | dedB G2 d2     | B2G2 d2G2                | "D" B2A2 A2D2            |
           "G" G3A  B2 GB   | dedB G2 "D" Ac | "G" B2AG "C" E2 "D" D/E/F  | "G" G4G2                 :|
|: g/a/g | "C" e2d2 "G" g3e | dedB G2g/a/g   | "C" e2d2 "G" g3d           | "D" B2A2 A2 "G" g/a/g  |
           "C" e2d2 "G" g3e | dedB G2 "D" Ac | "G" B2AG "C" E2 "D" D/E/F  | "G" G4      G2            |]


